X: 34336
T: Return To Burton Road
R: jig
M: 6/8
K: Dmajor
G|:EAB ~=c3|Adc d2 e|fag efd|ABG FAD|
dcd afd|Bef gag|f2{g}d ecA|GEA D3:|
|:dcd (3fga f|gec AFA|dcd AGA|=cBc EFG|
dcd (3fga f|gec Ace|dcd AGA|GEA D3:|
|:~d3 ~a3|gfg aba|~d3 aba|ged cde|
d2f ecA|GAB AFG|Ace Bce|GEA D3:|

